packages/kaspersky-hexa-ui-icons/src/iconsSVGs/48/AccountUser.svg

<svg xmlns="http://www.w3.org/2000/svg" width="48" height="48" fill="none" viewBox="0 0 48 48"><path fill="currentColor" fill-rule="evenodd" d="M24 0C10.7452 0 0 10.7452 0 24s10.7452 24 24 24 24-10.7452 24-24S37.2548 0 24 0m0 2c8.3897.0046 16.0465 4.7804 19.7406 12.3131S46.523 30.8237 41.39 37.46a8.48 8.48 0 0 0-3.88-2.38l-3.64-1A7.81 7.81 0 0 1 29.5 30c3.2-3.1 4.6-8.59 4.6-12 0-5.5781-4.5219-10.1-10.1-10.1S13.9 12.4219 13.9 18c0 3.46 1.42 9 4.65 12.07a8 8 0 0 1-4.42 4.05l-3.64 1a8.48 8.48 0 0 0-3.88 2.38C1.4527 30.8639.5268 21.8694 4.224 14.3219 7.9214 6.7744 15.5957 1.9927 24 2m-8.1 16c0-4.4735 3.6265-8.1 8.1-8.1s8.1 3.6265 8.1 8.1c0 4.17-2.45 12.34-8.1 12.34S15.9 22.13 15.9 18M24 46a21.94 21.94 0 0 1-16.07-7A6.46 6.46 0 0 1 11 37l3.64-1a9.85 9.85 0 0 0 5.51-4.75A7.39 7.39 0 0 0 24 32.3a7.47 7.47 0 0 0 3.88-1.08A9.54 9.54 0 0 0 33.34 36L37 37a6.46 6.46 0 0 1 3.09 2A21.94 21.94 0 0 1 24 46" clip-rule="evenodd"/></svg>

<svg width="48" height="48" viewBox="0 0 48 48" fill="none" xmlns="http://www.w3.org/2000/svg">
<path fill-rule="evenodd" clip-rule="evenodd" d="M24 0C10.7452 0 0 10.7452 0 24C0 37.2548 10.7452 48 24 48C37.2548 48 48 37.2548 48 24C48 10.7452 37.2548 0 24 0ZM24 2C32.3897 2.00456 40.0465 6.78044 43.7406 14.3131C47.4347 21.8458 46.523 30.8237 41.39 37.46C40.3377 36.3279 38.9961 35.5049 37.51 35.08L33.87 34.08C31.9298 33.3534 30.3579 31.8858 29.5 30C32.7 26.9 34.1 21.41 34.1 18C34.1 12.4219 29.5781 7.9 24 7.9C18.4219 7.9 13.9 12.4219 13.9 18C13.9 21.46 15.32 27 18.55 30.07C17.6573 31.9419 16.0726 33.3939 14.13 34.12L10.49 35.12C9.00394 35.5449 7.66227 36.3679 6.61 37.5C1.45272 30.8639 0.526832 21.8694 4.22406 14.3219C7.92129 6.77437 15.5956 1.99272 24 2ZM15.9 18C15.9 13.5265 19.5265 9.9 24 9.9C28.4735 9.9 32.1 13.5265 32.1 18C32.1 22.17 29.65 30.34 24 30.34C18.35 30.34 15.9 22.13 15.9 18ZM24 46C17.9034 46.0007 12.0814 43.4647 7.93 39C8.73886 38.051 9.80509 37.3564 11 37L14.64 36C17.0155 35.1778 18.9867 33.4784 20.15 31.25C21.3128 31.9464 22.6447 32.3097 24 32.3C25.3678 32.302 26.7099 31.9284 27.88 31.22C28.9993 33.4704 30.9614 35.1881 33.34 36L37 37C38.2022 37.3529 39.2757 38.0478 40.09 39C35.9338 43.4698 30.1035 46.0063 24 46Z"  fill="currentColor"/>
</svg>
